Origami/64x64/apps/io.elementary.code.svg

<svg width="64" height="64" version="1" xmlns="http://www.w3.org/2000/svg">
 <path d="m54 58.2v-50.4c0-1.5512-1.2265-2.8-2.75-2.8h-38.5c-1.5235 0-2.75 1.2488-2.75 2.8v50.4c0 1.5512 1.2265 2.8 2.75 2.8h38.5c1.5235 0 2.75-1.2488 2.75-2.8z" style="opacity:.2"/>
 <path d="m54 57.2v-50.4c0-1.5512-1.2265-2.8-2.75-2.8h-38.5c-1.5235 0-2.75 1.2488-2.75 2.8v50.4c0 1.5512 1.2265 2.8 2.75 2.8h38.5c1.5235 0 2.75-1.2488 2.75-2.8z" style="fill:#cccccc"/>
 <path d="m12.75 4c-1.5235 0-2.75 1.2495812-2.75 2.8007812v1c0-1.5511999 1.2265-2.8007812 2.75-2.8007812h38.5c1.5235 0 2.75 1.2495812 2.75 2.8007812v-1c0-1.5511999-1.2265-2.8007812-2.75-2.8007812h-38.5z" style="fill:#ffffff;opacity:.2"/>
 <path d="m29 24.9375c-1.79744 1.8e-5 -3.784648 0.320008-4.6875 0.875-0.89458 0.547522-1.3125 1.392498-1.3125 2.5625v2.5625c0 0.697518-0.32832 1.155004-0.875 1.5-0.538406 0.337512-1.00678 0.562508-2.125 0.5625v2c2.203302 4e-6 3 0.729986 3 2.125v2.1875c0 1.282512 0.4134 2.242488 1.25 2.8125 0.84487 0.577502 2.836598 0.859994 4.75 0.875v-2.0625c-0.952564-0.015-2.95257-0.185-3.375-0.5-0.422446-0.315002-0.625-0.759994-0.625-1.375v-2.375c0-0.613602-0.228174-2.41749-2.125-2.6875v-0.125c1.896826-0.292496 2.125-1.74704 2.125-2.625v-2.375c0-0.614996 0.202566-1.004982 0.625-1.3125 0.430714-0.31499 2.43072-0.524986 3.375-0.5625zm6 0v2.0625c0.94428 0.03752 2.944286 0.24751 3.375 0.5625 0.422434 0.307518 0.625 0.697504 0.625 1.3125v2.375c0 0.87796 0.228174 2.332504 2.125 2.625v0.125c-1.896826 0.27001-2.125 2.073898-2.125 2.6875v2.375c0 0.615006-0.202554 1.059998-0.625 1.375-0.42243 0.314998-2.422436 0.485-3.375 0.5v2.0625c1.913402-0.015 3.90513-0.297498 4.75-0.875 0.8366-0.570012 1.25-1.529988 1.25-2.8125v-2.1875c0-1.395014 0.796698-2.124996 3-2.125v-2c-1.11822 8e-6 -1.586594-0.224988-2.125-0.5625-0.54668-0.344996-0.875-0.802482-0.875-1.5v-2.5625c0-1.170002-0.41792-2.014978-1.3125-2.5625-0.902852-0.554992-2.89006-0.874982-4.6875-0.875z" style="opacity:.1"/>
 <path d="m29 23.9375c-1.79744 1.8e-5 -3.784648 0.320008-4.6875 0.875-0.89458 0.547522-1.3125 1.392498-1.3125 2.5625v2.5625c0 0.697518-0.32832 1.155004-0.875 1.5-0.538406 0.337512-1.00678 0.562508-2.125 0.5625v2c2.203302 4e-6 3 0.729986 3 2.125v2.1875c0 1.282512 0.4134 2.242488 1.25 2.8125 0.84487 0.577502 2.836598 0.859994 4.75 0.875v-2.0625c-0.952564-0.015-2.95257-0.185-3.375-0.5-0.422446-0.315002-0.625-0.759994-0.625-1.375v-2.375c0-0.613602-0.228174-2.41749-2.125-2.6875v-0.125c1.896826-0.292496 2.125-1.74704 2.125-2.625v-2.375c0-0.614996 0.202566-1.004982 0.625-1.3125 0.430714-0.31499 2.43072-0.524986 3.375-0.5625zm6 0v2.0625c0.94428 0.03752 2.944286 0.24751 3.375 0.5625 0.422434 0.307518 0.625 0.697504 0.625 1.3125v2.375c0 0.87796 0.228174 2.332504 2.125 2.625v0.125c-1.896826 0.27001-2.125 2.073898-2.125 2.6875v2.375c0 0.615006-0.202554 1.059998-0.625 1.375-0.42243 0.314998-2.422436 0.485-3.375 0.5v2.0625c1.913402-0.015 3.90513-0.297498 4.75-0.875 0.8366-0.570012 1.25-1.529988 1.25-2.8125v-2.1875c0-1.395014 0.796698-2.124996 3-2.125v-2c-1.11822 8e-6 -1.586594-0.224988-2.125-0.5625-0.54668-0.344996-0.875-0.802482-0.875-1.5v-2.5625c0-1.170002-0.41792-2.014978-1.3125-2.5625-0.902852-0.554992-2.89006-0.874982-4.6875-0.875z" style="fill:#446f7d"/>
</svg>

<svg xmlns="http://www.w3.org/2000/svg" width="64" height="64" version="1">
 <path style="opacity:0.2" d="M 54,58.2 V 7.8 C 54,6.2488 52.7735,5 51.25,5 H 12.75 C 11.2265,5 10,6.2488 10,7.8 v 50.4 c 0,1.5512 1.2265,2.8 2.75,2.8 h 38.5 C 52.7735,61 54,59.7512 54,58.2 Z"/>
 <path style="fill:#cccccc" d="M 54,57.2 V 6.8 C 54,5.2488 52.7735,4 51.25,4 H 12.75 C 11.2265,4 10,5.2488 10,6.8 v 50.4 c 0,1.5512 1.2265,2.8 2.75,2.8 h 38.5 C 52.7735,60 54,58.7512 54,57.2 Z"/>
 <path style="opacity:0.2;fill:#ffffff" d="M 12.75 4 C 11.2265 4 10 5.2495812 10 6.8007812 L 10 7.8007812 C 10 6.2495813 11.2265 5 12.75 5 L 51.25 5 C 52.7735 5 54 6.2495812 54 7.8007812 L 54 6.8007812 C 54 5.2495813 52.7735 4 51.25 4 L 12.75 4 z"/>
 <path style="opacity:0.1" d="m 29,24.9375 c -1.79744,1.8e-5 -3.784648,0.320008 -4.6875,0.875 C 23.41792,26.360022 23,27.204998 23,28.375 v 2.5625 c 0,0.697518 -0.32832,1.155004 -0.875,1.5 C 21.586594,32.775012 21.11822,33.000008 20,33 v 2 c 2.203302,4e-6 3,0.729986 3,2.125 v 2.1875 c 0,1.282512 0.4134,2.242488 1.25,2.8125 0.84487,0.577502 2.836598,0.859994 4.75,0.875 v -2.0625 c -0.952564,-0.015 -2.95257,-0.185 -3.375,-0.5 C 25.202554,40.122498 25,39.677506 25,39.0625 v -2.375 C 25,36.073898 24.771826,34.27001 22.875,34 V 33.875 C 24.771826,33.582504 25,32.12796 25,31.25 v -2.375 c 0,-0.614996 0.202566,-1.004982 0.625,-1.3125 C 26.055714,27.24751 28.05572,27.037514 29,27 Z m 6,0 V 27 c 0.94428,0.03752 2.944286,0.24751 3.375,0.5625 C 38.797434,27.870018 39,28.260004 39,28.875 v 2.375 c 0,0.87796 0.228174,2.332504 2.125,2.625 V 34 C 39.228174,34.27001 39,36.073898 39,36.6875 v 2.375 c 0,0.615006 -0.202554,1.059998 -0.625,1.375 -0.42243,0.314998 -2.422436,0.485 -3.375,0.5 V 43 c 1.913402,-0.015 3.90513,-0.297498 4.75,-0.875 C 40.5866,41.554988 41,40.595012 41,39.3125 V 37.125 C 41,35.729986 41.796698,35.000004 44,35 v -2 c -1.11822,8e-6 -1.586594,-0.224988 -2.125,-0.5625 C 41.32832,32.092504 41,31.635018 41,30.9375 V 28.375 C 41,27.204998 40.58208,26.360022 39.6875,25.8125 38.784648,25.257508 36.79744,24.937518 35,24.9375 Z"/>
 <path style="fill:#446f7d" d="m 29,23.9375 c -1.79744,1.8e-5 -3.784648,0.320008 -4.6875,0.875 C 23.41792,25.360022 23,26.204998 23,27.375 v 2.5625 c 0,0.697518 -0.32832,1.155004 -0.875,1.5 C 21.586594,31.775012 21.11822,32.000008 20,32 v 2 c 2.203302,4e-6 3,0.729986 3,2.125 v 2.1875 c 0,1.282512 0.4134,2.242488 1.25,2.8125 0.84487,0.577502 2.836598,0.859994 4.75,0.875 v -2.0625 c -0.952564,-0.015 -2.95257,-0.185 -3.375,-0.5 C 25.202554,39.122498 25,38.677506 25,38.0625 v -2.375 C 25,35.073898 24.771826,33.27001 22.875,33 V 32.875 C 24.771826,32.582504 25,31.12796 25,30.25 v -2.375 c 0,-0.614996 0.202566,-1.004982 0.625,-1.3125 C 26.055714,26.24751 28.05572,26.037514 29,26 Z m 6,0 V 26 c 0.94428,0.03752 2.944286,0.24751 3.375,0.5625 C 38.797434,26.870018 39,27.260004 39,27.875 v 2.375 c 0,0.87796 0.228174,2.332504 2.125,2.625 V 33 C 39.228174,33.27001 39,35.073898 39,35.6875 v 2.375 c 0,0.615006 -0.202554,1.059998 -0.625,1.375 -0.42243,0.314998 -2.422436,0.485 -3.375,0.5 V 42 c 1.913402,-0.015 3.90513,-0.297498 4.75,-0.875 C 40.5866,40.554988 41,39.595012 41,38.3125 V 36.125 C 41,34.729986 41.796698,34.000004 44,34 v -2 c -1.11822,8e-6 -1.586594,-0.224988 -2.125,-0.5625 C 41.32832,31.092504 41,30.635018 41,29.9375 V 27.375 C 41,26.204998 40.58208,25.360022 39.6875,24.8125 38.784648,24.257508 36.79744,23.937518 35,23.9375 Z"/>
</svg>
